!!!COM:	Brumel, Antoine
!!!CDT:	~1460-~1512
!!!OPR:	Missa Pro defunctis
!!!ONM:	3
!!!OTL:	Dies irae
!!!AGN:	Mass; Dies irae
!!!SCT:	Bru1011c
!!!SCA:	Bru1011c
!!!voices:	4
**kern	**text	**kern	**text	**kern	**text	**kern	**text
*staff4	*staff4	*staff3	*staff3	*staff2	*staff2	*staff1	*staff1
*Ivox	*	*Ivox	*	*Ivox	*	*Ivox	*
*I"Bassus	*	*I"Tenor	*	*I"Altus	*	*I"Superius	*
*I'B	*	*I'T	*	*I'A	*	*I'S	*
*>[A,B,C,D,E,F,G,H,I,J,K]	*>[A,B,C,D,E,F,G,H,I,J,K]	*>[A,B,C,D,E,F,G,H,I,J,K]	*>[A,B,C,D,E,F,G,H,I,J,K]	*>[A,B,C,D,E,F,G,H,I,J,K]	*>[A,B,C,D,E,F,G,H,I,J,K]	*>[A,B,C,D,E,F,G,H,I,J,K]	*>[A,B,C,D,E,F,G,H,I,J,K]
*>A	*>A	*>A	*>A	*>A	*>A	*>A	*>A
*clefF4	*	*clefGv2	*	*clefGv2	*	*clefG2	*
*k[]	*	*k[]	*	*k[]	*	*k[]	*
*M2/1	*	*M2/1	*	*M2/1	*	*M2/1	*
*met(C|)	*	*met(C|)	*	*met(C|)	*	*met(C|)	*
!!section: Dies irae
!!!OMD: Dies irae
=1-	=1-	=1-	=1-	=1-	=1-	=1-	=1-
0F	Di-	1r	.	0c	Di-	1r	.
.	.	[1F	Di-	.	.	[1f	Di-
=2	=2	=2	=2	=2	=2	=2	=2
1D	-es	1F]	.	1B	-es	1f]	.
1C	i-	2G	-es	1c	i-	1e	-es
.	.	[2A	i-	.	.	.	.
=3	=3	=3	=3	=3	=3	=3	=3
0D	-re,	2A]	.	0A	-re,	1f	i-
.	.	2F	-re,	.	.	.	.
.	.	1F	di-	.	.	[1d	-re,
=4	=4	=4	=4	=4	=4	=4	=4
1GG	di-	0G	-es-	1B	di-	1d]	.
[1C	-es	.	.	2.c	-es	1e	di-
.	.	.	.	4B	.	.	.
=5	=5	=5	=5	=5	=5	=5	=5
1C]	.	0E	-il-	1G	il-	0c	-es
1AA	.	.	.	1A	.	.	.
=6	=6	=6	=6	=6	=6	=6	=6
1D	il-	1F	.	2A	.	1d	il-
.	.	.	.	2.B	.	.	.
2GG	.	2G	.	.	.	2d	.
.	.	.	.	4A	.	.	.
2C	.	2E	.	[2A	.	[2e	.
=7	=7	=7	=7	=7	=7	=7	=7
2AA	.	2C	.	2A]	.	4e]	.
.	.	.	.	.	.	4d	.
2BB	.	2D	.	2G	.	1d	.
1AA	-la,	1E	-la,	1A	-la,	.	.
.	.	.	.	.	.	2c#i	.
=8	=8	=8	=8	=8	=8	=8	=8
1D	Sol-	2r	.	1r	.	1d	-la,
.	.	2D	Sol-	.	.	.	.
1C	-vet	1G	-vet	1c	Sol-	1r	.
=9	=9	=9	=9	=9	=9	=9	=9
1D	se-	1F	.	2B	-vet	1f	Sol-
.	.	.	.	2d	.	.	.
1E	.	1G	.	2.c	se-	2e	-vet
.	.	.	.	.	.	2g	.
.	.	.	.	4B	.	.	.
=10	=10	=10	=10	=10	=10	=10	=10
1D	-clum	1A	.	1d	-clum	2.f	.
.	.	.	.	.	.	4e	.
2r	.	1G	.	[1B	.	1g	.
[2E	in	.	.	.	.	.	.
=11	=11	=11	=11	=11	=11	=11	=11
2E]	.	2r	.	2B]	.	1r	.
2C	.	2G	se-	1c	.	.	.
1F	fa-	1A	-clum	.	.	1f	se-
.	.	.	.	2c	.	.	.
=12	=12	=12	=12	=12	=12	=12	=12
1C	-vil-	1G	.	1c	.	1e	.
1D	.	1F	.	[1A	in	1d	-clum
=13	=13	=13	=13	=13	=13	=13	=13
1AA	.	1E	.	1A]	.	1c	.
1D	.	1F	in	2A	fa-	1r	.
.	.	.	.	2B	.	.	.
=14	=14	=14	=14	=14	=14	=14	=14
0C	.	2.G	fa-	1c	.	2.e	in
.	.	4F	.	.	.	4f	.
.	.	2E	.	1c	-vil-	2.g	fa-
.	.	2E	.	.	.	.	.
.	.	.	.	.	.	8fL	.
.	.	.	.	.	.	8eJ	.
=15	=15	=15	=15	=15	=15	=15	=15
2D	.	2D	.	2A	.	2f	.
1C	.	1G	-vil-	2.c	.	1e	-vil-
.	.	.	.	4B	.	.	.
2D	.	2F	.	4A	.	[2d	.
.	.	.	.	4G	.	.	.
=16	=16	=16	=16	=16	=16	=16	=16
1AA	-la:	1E	.	0A	-la:	2d]	.
.	.	.	.	.	.	2c#i	.
2r	.	1D	-la:	.	.	1d	-la:
2D	Te-	.	.	.	.	.	.
=17	=17	=17	=17	=17	=17	=17	=17
0D	-ste	2r	.	2r	.	1r	.
.	.	2F	Te-	2.d	Te-	.	.
.	.	1F	-ste	.	.	2.A	Te-
.	.	.	.	8cL	.	.	.
.	.	.	.	8BJ	.	.	.
.	.	.	.	[2A	-ste	.	.
.	.	.	.	.	.	4B	.
=18	=18	=18	=18	=18	=18	=18	=18
2AA	Da-	2E	Da-	2A]	.	2c	-ste
2BB	.	2D	.	2G	Da-	1d	Da-
1AA	-vid	1E	.	[1A	-vid	.	.
.	.	.	.	.	.	2c#i	.
=19	=19	=19	=19	=19	=19	=19	=19
1r	.	0D	-vid	1A]	.	1d	-vid
[1D	cum	.	.	2r	.	2r	.
.	.	.	.	2A	cum	2f	cum
=20	=20	=20	=20	=20	=20	=20	=20
1D]	.	2r	.	1d	Sil-	1f	Si-
.	.	2A	cum	.	.	.	.
1AA	Si-	1A	Si-	[1c	-byl-	[1e	-byl-
=21	=21	=21	=21	=21	=21	=21	=21
1C	-byl-	1G	-byl-	1c]	.	1e]	.
1GG	.	1B-i	.	1d	.	1g	.
=22	=22	=22	=22	=22	=22	=22	=22
2AA	.	2A	.	1c	.	2f	.
1C	.	1G	.	.	.	2.e	.
.	.	.	.	2c	.	.	.
.	.	.	.	.	.	4d	.
2D	.	2F	.	[2A	.	[2d	.
=23	=23	=23	=23	=23	=23	=23	=23
1AA	.	1E	.	1A]	.	2d]	.
.	.	.	.	.	.	2c#i	.
1Dl	-la.	1Dl	-la.	1Al	-la.	1dl	-la.
!!LO:PB:i:g=z
=24||	=24||	=24||	=24||	=24||	=24||	=24||	=24||
*>B	*>B	*>B	*>B	*>B	*>B	*>B	*>B
*clefF4	*	*clefGv2	*	*clefGv2	*	*clefG2	*
*k[]	*	*k[]	*	*k[]	*	*k[]	*
*M2/1	*	*M2/1	*	*M2/1	*	*M2/1	*
*met(C|)	*	*met(C|)	*	*met(C|)	*	*met(C|)	*
!!section: Tuba mirum
!!!OMD: Tuba mirum
0D	Tu-	1A	Tu-	0d	Tu-	0f	Tu-
.	.	2A	-ba	.	.	.	.
.	.	2B	.	.	.	.	.
=25	=25	=25	=25	=25	=25	=25	=25
1.C	-ba	1c	.	1.G	-ba	0e	-ba
.	.	[1c	mi-	.	.	.	.
2AA	.	.	.	2A	mi-	.	.
=26	=26	=26	=26	=26	=26	=26	=26
1AA	mi-	1c]	.	2.A	-rum	1e	mi-
.	.	.	.	4G	.	.	.
2D	.	2B	.	2F	.	2d	.
2C	.	[2A	.	2E	.	2e	.
=27	=27	=27	=27	=27	=27	=27	=27
1BB-	.	2A]	.	1D	spar-	2f	.
.	.	2G	.	.	.	2g	.
[1AA	-rum	1A	-rum	1E	-gens	1c	-rum
=28	=28	=28	=28	=28	=28	=28	=28
1AA]	.	1r	.	2.A	so-	2r	.
.	.	.	.	.	.	2e	spar-
.	.	.	.	4B	.	.	.
1AA	spar-	1A	spar-	[1c	.	[1e	-gens
=29	=29	=29	=29	=29	=29	=29	=29
1C	-gens	2G	.	1c]	.	1e]	.
.	.	1G	-gens	.	.	.	.
1D	.	.	.	1B	.	2f	.
.	.	2F	.	.	.	2d	.
=30	=30	=30	=30	=30	=30	=30	=30
1C	.	1G	.	0c	.	0e	.
1AA	.	[1A	so-	.	.	.	.
=31	=31	=31	=31	=31	=31	=31	=31
1D	so-	1A]	.	1d	.	1f	so-
1AA	.	1A	-num	1c	-num	1e	-num
=32	=32	=32	=32	=32	=32	=32	=32
1BB	-num	0D	.	1F	Per	2r	.
.	.	.	.	.	.	2.d	Per-
1GG	.	.	.	1G	.	.	.
.	.	.	.	.	.	4c	.
.	.	.	.	.	.	2B	-se-
=33	=33	=33	=33	=33	=33	=33	=33
1D	Per	1F	Per	2A	se-	2A	-pul-
.	.	.	.	2A	-pul-	2d	.
1AA	.	1E	se-	1A	-cra	1c	-cra,
=34	=34	=34	=34	=34	=34	=34	=34
1D	se-	1F	-pul-	1A	re-	0r	.
1GG	.	1D	-cra	1B	.	.	.
=35	=35	=35	=35	=35	=35	=35	=35
2C	-pul-	1E	re-	2G	-gi-	0r	.
2AA	.	.	.	2A	.	.	.
2BB-	.	2D	-gi-	2F	-o-	.	.
2GG	.	[2D	-o-	2G	.	.	.
=36	=36	=36	=36	=36	=36	=36	=36
1AA	-cra	2D]	.	1E	-num,	1r	.
.	.	2C#i	.	.	.	.	.
1r	.	1D	-num,	2r	.	2.f	Co-
.	.	.	.	2D	Co-	.	.
.	.	.	.	.	.	4g	.
=37	=37	=37	=37	=37	=37	=37	=37
0D	re-	1r	.	2.F	-get	0a	-get
.	.	.	.	4G	.	.	.
.	.	1F	Co-	2A	.	.	.
.	.	.	.	2d	.	.	.
=38	=38	=38	=38	=38	=38	=38	=38
1E	-gi-	1G	.	2B	o-	1g	o-
.	.	.	.	2c	.	.	.
1D	-o-	1A	.	1d	.	1f	.
=39	=39	=39	=39	=39	=39	=39	=39
1F	.	1A	-get	1.c	-mnes	1f	.
2C	.	2G	o-	.	.	2e	.
2D	.	2F	.	2A	.	[2d	.
=40	=40	=40	=40	=40	=40	=40	=40
1AA	-num,	1E	-mnes	1A	.	2d]	.
.	.	.	.	.	.	2c#i	.
2r	.	1D	.	2r	.	1d	-mnes
[2D	Co-	.	.	2A	an-	.	.
=41	=41	=41	=41	=41	=41	=41	=41
2D]	.	1r	.	2F	-te	2r	.
2BB-	-get	.	.	2G	.	2d	an-
1AA	o-	1E	an-	[1A	.	1c	-te
=42	=42	=42	=42	=42	=42	=42	=42
1D	-mnes	1F	-te	1A]	.	2.d	thro-
.	.	.	.	.	.	8cL	.
.	.	.	.	.	.	8BJ	.
1AA	an-	1E	thro-	1A	thro-	1c	.
=43	=43	=43	=43	=43	=43	=43	=43
2D	-te	2F	.	2B	.	2d	.
2C	.	2G	.	2c	.	2.e	.
1BB	.	1D	.	2F	.	.	.
.	.	.	.	.	.	4d	.
.	.	.	.	2G	.	[2d	.
=44	=44	=44	=44	=44	=44	=44	=44
1AA	thro-	1E	.	0Al	-num.	2d]	.
.	.	.	.	.	.	2c#i	.
1Dl	-num.	1Dl	-num.	.	.	1dl	-num.
!!LO:PB:i:g=z
=45||	=45||	=45||	=45||	=45||	=45||	=45||	=45||
*>C	*>C	*>C	*>C	*>C	*>C	*>C	*>C
*clefF4	*	*clefGv2	*	*clefGv2	*	*clefG2	*
*k[]	*	*k[]	*	*k[]	*	*k[]	*
*M2/1	*	*M2/1	*	*M2/1	*	*M2/1	*
*met(C|)	*	*met(C|)	*	*met(C|)	*	*met(C|)	*
!!section: Liber scriptus
!!!OMD: Liber scriptus
0r	.	0r	.	2.A	Li-	0a	Li-
.	.	.	.	4B	.	.	.
.	.	.	.	2c	.	.	.
.	.	.	.	2d	.	.	.
=46	=46	=46	=46	=46	=46	=46	=46
0r	.	0r	.	2B	-ber	1g	-ber
.	.	.	.	2c	.	.	.
.	.	.	.	4d	.	1f	.
.	.	.	.	8cL	.	.	.
.	.	.	.	8BJ	.	.	.
.	.	.	.	2A	.	.	.
=47	=47	=47	=47	=47	=47	=47	=47
0r	.	0r	.	2r	.	1g	scri-
.	.	.	.	2G	scri-	.	.
.	.	.	.	2.c	-ptus	2.a	.
.	.	.	.	4B	.	4g	.
=48	=48	=48	=48	=48	=48	=48	=48
0r	.	0r	.	2A	.	2f	.
.	.	.	.	2G	.	2.e	.
.	.	.	.	2F	.	.	.
.	.	.	.	.	.	4d	.
.	.	.	.	2G	.	[2d	.
=49	=49	=49	=49	=49	=49	=49	=49
0r	.	0r	.	1E	.	2d]	.
.	.	.	.	.	.	2c#i	.
.	.	.	.	2r	.	1d	-ptus
.	.	.	.	[2D	pro-	.	.
=50	=50	=50	=50	=50	=50	=50	=50
0r	.	0r	.	2D]	.	1r	.
.	.	.	.	2G	.	.	.
.	.	.	.	2F	.	1d	pro-
.	.	.	.	2G	.	.	.
=51	=51	=51	=51	=51	=51	=51	=51
0r	.	0r	.	2E	-fe-	1c	-fe-
.	.	.	.	2.A	-re-	.	.
.	.	.	.	.	.	2.A	-re-
.	.	.	.	4G	.	.	.
.	.	.	.	2F	.	.	.
.	.	.	.	.	.	4B	.
=52	=52	=52	=52	=52	=52	=52	=52
0r	.	0r	.	2E	.	2c	.
.	.	.	.	4D	.	1d	.
.	.	.	.	2F	.	.	.
.	.	.	.	4G	.	.	.
.	.	.	.	2E	-tur,	2c#i	.
=53	=53	=53	=53	=53	=53	=53	=53
0r	.	0r	.	2r	.	1d	-tur,
.	.	.	.	2D	In	.	.
.	.	.	.	2F	quo	1r	.
.	.	.	.	2G	to-	.	.
=54	=54	=54	=54	=54	=54	=54	=54
0r	.	0r	.	2D	-tum	1f	In
.	.	.	.	2d	.	.	.
.	.	.	.	4c	.	1e	quo
.	.	.	.	2A	.	.	.
.	.	.	.	4c	.	.	.
=55	=55	=55	=55	=55	=55	=55	=55
0r	.	0r	.	4B	.	1d	.
.	.	.	.	2G	.	.	.
.	.	.	.	4B	.	.	.
.	.	.	.	1A	.	1c	to-
=56	=56	=56	=56	=56	=56	=56	=56
0r	.	0r	.	2F	.	1A	-tum
.	.	.	.	2D	.	.	.
.	.	.	.	1E	.	2r	.
.	.	.	.	.	.	2c	con-
=57	=57	=57	=57	=57	=57	=57	=57
0r	.	0r	.	2r	.	2.d	-ti-
.	.	.	.	2D	con-	.	.
.	.	.	.	.	.	4e	.
.	.	.	.	2.D	-ti-	1f	.
.	.	.	.	8CL	.	.	.
.	.	.	.	8BBJ	.	.	.
=58	=58	=58	=58	=58	=58	=58	=58
0r	.	0r	.	2C	.	2e	-ne-
.	.	.	.	2D	.	1d	.
.	.	.	.	1E	-ne-	.	.
.	.	.	.	.	.	2c#i	.
=59	=59	=59	=59	=59	=59	=59	=59
0r	.	0r	.	0D	-tur,	1d	-tur.
.	.	.	.	.	.	1r	.
=60	=60	=60	=60	=60	=60	=60	=60
0r	.	0r	.	2r	.	1a	Un-
.	.	.	.	2.d	Un-	.	.
.	.	.	.	.	.	1f	-de
.	.	.	.	8cL	.	.	.
.	.	.	.	8BJ	.	.	.
.	.	.	.	2A	-de	.	.
=61	=61	=61	=61	=61	=61	=61	=61
0r	.	0r	.	2G	mun-	1g	mun-
.	.	.	.	2c	-dus	.	.
.	.	.	.	2B	ju-	1d	-dus
.	.	.	.	2G	-di-	.	.
=62	=62	=62	=62	=62	=62	=62	=62
0r	.	0r	.	2.A	-ce-	2r	.
.	.	.	.	.	.	2c	ju-
.	.	.	.	4G	.	.	.
.	.	.	.	4F	.	2d	-di-
.	.	.	.	4E	.	.	.
.	.	.	.	2D	.	2f	.
=63	=63	=63	=63	=63	=63	=63	=63
0r	.	0r	.	2C	.	2e	.
.	.	.	.	2E	.	2g	.
.	.	.	.	2D	.	2f	.
.	.	.	.	2G	.	[2e	-ce-
=64	=64	=64	=64	=64	=64	=64	=64
0r	.	0r	.	2A	.	2e]	.
.	.	.	.	2F	.	1d	.
.	.	.	.	1E	.	.	.
.	.	.	.	.	.	2c#i	.
=65	=65	=65	=65	=65	=65	=65	=65
0r	.	0r	.	0Dl	-tur.	0dl	-tur.
!!LO:PB:i:g=z
=66||	=66||	=66||	=66||	=66||	=66||	=66||	=66||
*>D	*>D	*>D	*>D	*>D	*>D	*>D	*>D
*clefF4	*	*clefGv2	*	*clefGv2	*	*clefG2	*
*k[]	*	*k[]	*	*k[]	*	*k[]	*
*M2/1	*	*M2/1	*	*M2/1	*	*M2/1	*
*met(C|)	*	*met(C|)	*	*met(C|)	*	*met(C|)	*
!!section: Quid sum miser
!!!OMD: Quid sum miser
1F	Quid	0F	Quid	1c	Quid	0f	Quid
1D	sum	.	.	1d	sum	.	.
=67	=67	=67	=67	=67	=67	=67	=67
1E	mi-	1G	sum	2B	mi-	1e	sum
.	.	.	.	2c	.	.	.
[1D	-ser	1A	mi-	2.d	-ser-	1f	mi-
.	.	.	.	8cL	.	.	.
.	.	.	.	8BJ	.	.	.
=68	=68	=68	=68	=68	=68	=68	=68
1D]	.	1F	-ser	2A	-tunc	1d	-ser
.	.	.	.	2B	.	.	.
1C	tunc	1G	tunc	[1c	.	[1e	tunc
=69	=69	=69	=69	=69	=69	=69	=69
0AA	di-	2.A	di-	1c]	.	1e]	.
.	.	8GL	.	.	.	.	.
.	.	8FJ	.	.	.	.	.
.	.	1E	.	[1A	di-	1c	di-
=70	=70	=70	=70	=70	=70	=70	=70
2D	-ctu-	2F	.	1A]	.	2d	-ctu-
2C	.	2E	.	.	.	1e	.
2BB-	.	2F	.	1B-	-ctu-	.	.
2GG	.	2G	.	.	.	[2d	.
=71	=71	=71	=71	=71	=71	=71	=71
1AA	-rus?	1E	-ctu-	1A	.	2d]	.
.	.	.	.	.	.	2c#i	.
1r	.	1D	-rus?	1A	-rus?	[1d	-rus?
=72	=72	=72	=72	=72	=72	=72	=72
0D	Quem	1r	.	2r	.	1d]	.
.	.	.	.	2A	Quem	.	.
.	.	1F	Quem	[1A	pa-	1r	.
=73	=73	=73	=73	=73	=73	=73	=73
1AA	.	1E	.	1A]	.	1r	.
1D	pa-	1F	pa-	2A	-tro-	1f	Quem
.	.	.	.	2B	.	.	.
=74	=74	=74	=74	=74	=74	=74	=74
1C	-tro-	1G	-tro-	1c	.	1e	.
1D	.	2F	.	2A	-num	1f	pa-
.	.	[2A	.	[2d	ro-	.	.
=75	=75	=75	=75	=75	=75	=75	=75
1E	.	2A]	.	2d]	.	1g	-tro-
.	.	2G	.	2c	-ga-	.	.
1D	.	[1A	-num	1d	-tu-	1f	.
=76	=76	=76	=76	=76	=76	=76	=76
1AA	-num	1A]	.	1c	.	1e	.
1BB-i	.	1F	.	[1B-	.	[1d	-num
=77	=77	=77	=77	=77	=77	=77	=77
1GG	.	1G	.	1B-]	.	1d]	.
[1AA	.	1E	.	1A	.	1c	.
=78	=78	=78	=78	=78	=78	=78	=78
1AA]	.	1A	.	0c	.	1r	.
2.C	ro-	1G	ro-	.	.	1e	ro-
4BB	.	.	.	.	.	.	.
=79	=79	=79	=79	=79	=79	=79	=79
2AA	-ga-	2A	-ga-	2c	.	2f	-ga-
2GG	.	2B-i	.	1d	.	2g	.
2D	-tu-	2A	-tu-	.	.	2f	-tu-
2E	.	[2G	.	2B	.	[2e	.
=80	=80	=80	=80	=80	=80	=80	=80
2C	.	2G]	.	2c	.	2e]	.
2D	.	2F	.	2A	.	1d	.
1AA	-rus?	1E	.	[1A	-rus?	.	.
.	.	.	.	.	.	2c#i	.
=81	=81	=81	=81	=81	=81	=81	=81
1r	.	1D	-rus?	1A]	.	1d	-rus?
[1D	Cum	1r	.	2r	.	1r	.
.	.	.	.	2A	Cum	.	.
=82	=82	=82	=82	=82	=82	=82	=82
1D]	.	0F	Cum	1d	vix	1A	Cum
1D	vix	.	.	2d	ju-	2.A	vix
.	.	.	.	[2A	-stus	.	.
.	.	.	.	.	.	4B	.
=83	=83	=83	=83	=83	=83	=83	=83
1AA	ju-	1E	vix	2A]	.	1c	.
.	.	.	.	2A	.	.	.
1BB	.	1D	.	2F	.	2d	.
.	.	.	.	2G	.	[2d	.
=84	=84	=84	=84	=84	=84	=84	=84
1AA	-stus	1E	.	0A	.	2d]	.
.	.	.	.	.	.	2c#i	.
1r	.	1D	.	.	.	1d	.
=85	=85	=85	=85	=85	=85	=85	=85
0D	sit	2r	.	2r	.	2r	.
.	.	2D	ju-	2G	sit	2d	ju-
.	.	[1F	-stus	1A	.	[1d	-stus
=86	=86	=86	=86	=86	=86	=86	=86
1BB-	se-	1F]	.	0B-	.	0d]	.
1GG	.	1G	sit	.	.	.	.
=87	=87	=87	=87	=87	=87	=87	=87
1AA	.	1E	se-	2.A	.	1c	.
.	.	.	.	4B	.	.	.
2.AA	-cu-	1A	.	[1c	.	2r	.
.	.	.	.	.	.	[2e	sit
4BB	.	.	.	.	.	.	.
=88	=88	=88	=88	=88	=88	=88	=88
1C	.	1G	.	1c]	.	1e]	.
[1FF	.	[1A	.	2r	.	[1f	se-
.	.	.	.	2c	se-	.	.
=89	=89	=89	=89	=89	=89	=89	=89
1FF]	.	1A]	.	1c	-cu-	1f]	.
[1C	.	2.G	-cu-	2.c	-rus.	2.e	-cu-
.	.	4F	.	4B	.	4d	.
=90	=90	=90	=90	=90	=90	=90	=90
2C]	.	2E	.	2A	.	2c	.
2BB	.	2D	.	2G	.	1d	.
1AA	.	1E	.	[1Al	.	.	.
.	.	.	.	.	.	2c#i	.
=91	=91	=91	=91	=91	=91	=91	=91
0Dl	-rus.	0Dl	-rus.	0A]	.	0dl	-rus.
!!LO:PB:i:g=z
=92||	=92||	=92||	=92||	=92||	=92||	=92||	=92||
*>E	*>E	*>E	*>E	*>E	*>E	*>E	*>E
*clefF4	*	*clefGv2	*	*clefGv2	*	*clefG2	*
*k[]	*	*k[]	*	*k[]	*	*k[]	*
*M2/1	*	*M2/1	*	*M2/1	*	*M2/1	*
*met(C|)	*	*met(C|)	*	*met(C|)	*	*met(C|)	*
!!section: Recordare Jesu
!!!OMD: Recordare Jesu
0D	Re-	1A	Re-	0d	Re-	0f	Re-
.	.	2A	-cor-	.	.	.	.
.	.	2B	.	.	.	.	.
=93	=93	=93	=93	=93	=93	=93	=93
!!LO:TX:X=30:Z=36:t=Same music as
!!LO:TX:i:X=30:Z=12:t=Tuba mirum
1.C	-cor-	1c	.	1.G	-cor-	0e	-cor-
.	.	[1c	-da-	.	.	.	.
2AA	.	.	.	2A	-da-	.	.
=94	=94	=94	=94	=94	=94	=94	=94
1AA	-da-	1c]	.	2.A	-re	1e	-da-
.	.	.	.	4G	.	.	.
2D	.	2B	.	2F	.	2d	.
2C	.	[2A	.	2E	.	2e	.
=95	=95	=95	=95	=95	=95	=95	=95
1BB-	-re	2A]	.	1D	Je-	2f	.
.	.	2G	.	.	.	2g	.
[1AA	.	1A	-re	1E	-su	1c	-re
=96	=96	=96	=96	=96	=96	=96	=96
1AA]	.	1r	.	2.A	pi-	2r	.
.	.	.	.	.	.	2e	Je
.	.	.	.	4B	.	.	.
1AA	Je-	1A	Je-	[1c	.	[1e	su
=97	=97	=97	=97	=97	=97	=97	=97
1C	-su	2G	.	1c]	.	1e]	.
.	.	1G	-su	.	.	.	.
1D	.	.	.	1B	.	2f	.
.	.	2F	.	.	.	2d	.
=98	=98	=98	=98	=98	=98	=98	=98
1C	.	1G	.	0c	.	0e	.
1AA	.	[1A	pi-	.	.	.	.
=99	=99	=99	=99	=99	=99	=99	=99
1D	pi-	1A]	.	1d	-e,	1f	pi-
1AA	.	1A	-e,	1c	.	1e	-e,
=100	=100	=100	=100	=100	=100	=100	=100
1BB	-e	0D	.	1F	Quod	2r	.
.	.	.	.	.	.	2.d	Quod
1GG	.	.	.	1G	.	.	.
.	.	.	.	.	.	4c	.
.	.	.	.	.	.	2B	sum
=101	=101	=101	=101	=101	=101	=101	=101
1D	Quod	1F	Quod	2A	sum	2A	cau-
.	.	.	.	2A	cau-	2d	.
1AA	.	1E	sum	1A	-sa	1c	-sa,
=102	=102	=102	=102	=102	=102	=102	=102
1D	sum	1F	cau-	1A	tu-	0r	.
1GG	.	1D	-sa	1B	.	.	.
=103	=103	=103	=103	=103	=103	=103	=103
2C	cau-	1E	tu-	2G	-e	0r	.
2AA	.	.	.	2A	.	.	.
2BB-	.	2D	-e	2F	vi-	.	.
2GG	.	[2D	vi-	2G	.	.	.
=104	=104	=104	=104	=104	=104	=104	=104
1AA	-sa	2D]	.	1E	-num,	1r	.
.	.	2C#i	.	.	.	.	.
1r	.	1D	-e:	2r	.	2.f	Ne
.	.	.	.	2D	Co-	.	.
.	.	.	.	.	.	4g	.
=105	=105	=105	=105	=105	=105	=105	=105
0D	tu-	1r	.	2.F	-get	0a	me
.	.	.	.	4G	.	.	.
.	.	1F	Ne	2A	.	.	.
.	.	.	.	2d	.	.	.
=106	=106	=106	=106	=106	=106	=106	=106
1E	-e	1G	.	2B	o-	1g	per-
.	.	.	.	2c	.	.	.
1D	vi-	1A	.	1d	.	1f	.
=107	=107	=107	=107	=107	=107	=107	=107
1F	.	1A	me	1.c	-mens	1f	-das
2C	.	2G	per-	.	.	2e	.
2D	.	2F	.	2A	.	[2d	.
=108	=108	=108	=108	=108	=108	=108	=108
1AA	-e:	1E	-das	1A	.	2d]	.
.	.	.	.	.	.	2c#i	.
2r	.	1D	.	2r	.	1d	.
[2D	Ne	.	.	2A	an-	.	.
=109	=109	=109	=109	=109	=109	=109	=109
2D]	.	1r	.	2F	-te	2r	.
2BB-	me	.	.	2G	.	2d	il-
1AA	per-	1E	il-	[1A	.	1c	-la
=110	=110	=110	=110	=110	=110	=110	=110
1D	-das	1F	-la	1A]	.	2.d	di-
.	.	.	.	.	.	8cL	.
.	.	.	.	.	.	8BJ	.
1AA	il-	1E	di-	1A	thro-	1c	.
=111	=111	=111	=111	=111	=111	=111	=111
2D	-la	2F	.	2B	.	2d	.
2C	.	2G	.	2c	.	2.e	.
1BB	.	1D	.	2F	.	.	.
.	.	.	.	.	.	4d	.
.	.	.	.	2G	.	[2d	.
=112	=112	=112	=112	=112	=112	=112	=112
1AA	di-	1E	.	0Al	-num.	2d]	.
.	.	.	.	.	.	2c#i	.
1Dl	-e.	1Dl	-e.	.	.	1dl	-e.
!!LO:PB:i:g=z
=113||	=113||	=113||	=113||	=113||	=113||	=113||	=113||
*>F	*>F	*>F	*>F	*>F	*>F	*>F	*>F
*clefF4	*	*clefGv2	*	*clefGv2	*	*clefG2	*
*k[]	*	*k[]	*	*k[]	*	*k[]	*
*M2/1	*	*M2/1	*	*M2/1	*	*M2/1	*
*met(C|)	*	*met(C|)	*	*met(C|)	*	*met(C|)	*
!!section: Juste judex
!!!OMD: Juste judex
0D	Ju-	1A	Ju-	2.d	Ju-	0a	Ju-
.	.	.	.	4e	.	.	.
.	.	[1d	-ste	1f	.	.	.
=114	=114	=114	=114	=114	=114	=114	=114
1BB-	-ste	1d]	.	1f	-ste	1b-	-ste
1C	ju-	1c	ju-	1e	ju	1g	ju-
=115	=115	=115	=115	=115	=115	=115	=115
0D	-dex	0A	-dex	0d	dex	0f	-dex
=116	=116	=116	=116	=116	=116	=116	=116
1G	ul-	1B	ul-	2d	ul-	1g	ul-
.	.	.	.	2e	.	.	.
1F	-ti-	[1c	-ti-	1f	-ti-	1a	-ti-
=117	=117	=117	=117	=117	=117	=117	=117
1C	-o-	1c]	.	1e	-o-	1g	-o-
2D	.	1A	-o-	2d	.	2f	.
2AA	.	.	.	2c	.	[2e	.
=118	=118	=118	=118	=118	=118	=118	=118
1BB-i	.	2F	.	2d	.	4e]	.
.	.	.	.	.	.	4d	.
.	.	2D	.	2G	.	1d	.
1AA	-nis,	1E	.	1A	-nis,	.	.
.	.	.	.	.	.	2c#i	.
=119	=119	=119	=119	=119	=119	=119	=119
1r	.	1D	-nis,	2r	.	0d	-nis,
.	.	.	.	2A	Do-	.	.
1D	Do-	2r	.	2A	-num	.	.
.	.	2F	Do-	2B	.	.	.
=120	=120	=120	=120	=120	=120	=120	=120
1C	.	1G	-num	[0c	.	1r	.
1FF	.	1A	fac	.	.	1f	Do-
=121	=121	=121	=121	=121	=121	=121	=121
1C	.	1G	.	1c]	.	1e	.
1D	-num	1F	.	1A	.	1d	-num
=122	=122	=122	=122	=122	=122	=122	=122
1GG	fac	1G	.	1B	.	1d	fac
[1AA	re-	1E	re-	2.A	fac	1c	.
.	.	.	.	8GL	.	.	.
.	.	.	.	8FJ	.	.	.
=123	=123	=123	=123	=123	=123	=123	=123
1AA]	.	2.A	-mis-	1E	.	1r	.
.	.	8GL	.	.	.	.	.
.	.	8FJ	.	.	.	.	.
[1AA	-mis-	2E	.	2r	.	1A	re-
.	.	2F	.	2A	re-	.	.
=124	=124	=124	=124	=124	=124	=124	=124
1AA]	.	1E	-si-	1A	-mis-	1c	-mis-
[1D	-si-	2D	-o-	1A	-si-	2.d	-si-
.	.	[2F	.	.	.	.	.
.	.	.	.	.	.	4e	.
=125	=125	=125	=125	=125	=125	=125	=125
1D]	.	4F]	.	2A	-o-	1f	.
.	.	4E	.	.	.	.	.
.	.	2F	.	2B	.	.	.
2C	-o-	2G	.	1c	.	2e	-o-
2FF	.	2A	.	.	.	[2f	.
=126	=126	=126	=126	=126	=126	=126	=126
1BB-i	-nis,	1D	.	2F	.	4f]	.
.	.	.	.	.	.	4e	.
.	.	.	.	2G	.	1d	.
1AA	.	1E	.	1A	-nis:	.	.
.	.	.	.	.	.	2c#i	.
=127	=127	=127	=127	=127	=127	=127	=127
2r	.	1D	-nis,	2r	.	1d	-nis,
2D	An-	.	.	2d	An-	.	.
1D	-te	2r	.	[1f	-te	1r	.
.	.	2A	An-	.	.	.	.
=128	=128	=128	=128	=128	=128	=128	=128
2.D	di-	1d	-te	1f]	.	0a	An-
4E	.	.	.	.	.	.	.
1F	.	1c	.	[1f	di-	.	.
=129	=129	=129	=129	=129	=129	=129	=129
1BB-	.	1d	di-	0f]	.	1b-i	-te
1F	.	[1c	-em	.	.	1a	.
=130	=130	=130	=130	=130	=130	=130	=130
1C	.	1c]	.	1e	.	1g	di-
1D	.	1A	ra	[1d	-em	1f	.
=131	=131	=131	=131	=131	=131	=131	=131
0GG	-em	2.B	ti-	1d]	.	1g	-em
.	.	4A	.	.	.	.	.
.	.	2.G	.	1B	ra-	1d	ra-
.	.	4F	.	.	.	.	.
=132	=132	=132	=132	=132	=132	=132	=132
1AA	ra-	1E	-o-	1A	.	1c	.
1D	-ti-	1F	.	2A	-ti-	1d	-ti-
.	.	.	.	2B	.	.	.
=133	=133	=133	=133	=133	=133	=133	=133
1C	-o-	0G	.	1c	-o-	0e	-o-
1E	.	.	.	2B	.	.	.
.	.	.	.	2c	.	.	.
=134	=134	=134	=134	=134	=134	=134	=134
1D	.	1A	.	1d	.	1f	.
1E	.	[1G	.	1B	.	1g	.
=135	=135	=135	=135	=135	=135	=135	=135
1C	.	1G]	.	1c	.	1e	.
1D	.	1F	.	1B	.	1d	.
=136	=136	=136	=136	=136	=136	=136	=136
0AA	.	0E	.	[0Al	-nis.	2c#i	.
.	.	.	.	.	.	1c#i	.
.	.	.	.	.	.	4B	.
.	.	.	.	.	.	4c#i	.
=137	=137	=137	=137	=137	=137	=137	=137
0Dl	-nis.	0Dl	-nis.	0A]	.	0dl	-nis.
!!LO:PB:i:g=z
=138||	=138||	=138||	=138||	=138||	=138||	=138||	=138||
*>G	*>G	*>G	*>G	*>G	*>G	*>G	*>G
*clefF4	*	*clefGv2	*	*clefGv2	*	*clefG2	*
*k[]	*	*k[]	*	*k[]	*	*k[]	*
*M2/1	*	*M2/1	*	*M2/1	*	*M2/1	*
*met(C|)	*	*met(C|)	*	*met(C|)	*	*met(C|)	*
!!section: Qui Mariam
!!!OMD: Qui Mariam
1F	Qui	0F	Qui	1c	Qui	0f	Qui
1D	Ma-	.	.	1d	.	.	.
=139	=139	=139	=139	=139	=139	=139	=139
!!LO:TX:X=-20:Z=36:t=Same music as
!!LO:TX:i:X=-20:Z=12:t=Quid sum miser
1E	-ri-	1G	Ma-	2B	Ma-	1e	Ma-
.	.	.	.	2c	.	.	.
[1D	-am	1A	-ri-	2.d	-ri-	1f	-ri-
.	.	.	.	8cL	.	.	.
.	.	.	.	8BJ	.	.	.
=140	=140	=140	=140	=140	=140	=140	=140
1D]	.	1F	-am	2A	.	1d	-am
.	.	.	.	2B	.	.	.
1C	ab-	1G	ab-	[1c	-am	[1e	.
=141	=141	=141	=141	=141	=141	=141	=141
0AA	-sol-	2.A	-sol-	1c]	.	1e]	.
.	.	8GL	.	.	.	.	.
.	.	8FJ	.	.	.	.	.
.	.	1E	.	[1A	ab-	1c	ab-
=142	=142	=142	=142	=142	=142	=142	=142
2D	-vi-	2F	-vi-	1A]	.	2d	-sol-
2C	.	2E	.	.	.	1e	-vi-
2BB-	.	2F	.	1B-	-sol-	.	.
2GG	.	2G	.	.	.	[2d	.
=143	=143	=143	=143	=143	=143	=143	=143
1AA	-sti,	1E	-sti,	1A	-vi-	2d]	.
.	.	.	.	.	.	2c#i	.
1r	.	1D	.	1A	-sti,	[1d	-sti,
=144	=144	=144	=144	=144	=144	=144	=144
0D	Et	1r	.	2r	.	1d]	.
.	.	.	.	2A	Et	.	.
.	.	1F	Et	[1A	la-	1r	.
=145	=145	=145	=145	=145	=145	=145	=145
1AA	la-	1E	la-	1A]	.	1r	.
1D	.	1F	.	2A	-tro-	1f	Et
.	.	.	.	2B	.	.	.
=146	=146	=146	=146	=146	=146	=146	=146
1C	-tro-	1G	-tro-	1c	.	1e	la-
1D	.	2F	.	2A	.	1f	.
.	.	[2A	.	[2d	.	.	.
=147	=147	=147	=147	=147	=147	=147	=147
1E	.	2A]	.	2d]	.	1g	-tro-
.	.	2G	.	2c	.	.	.
1D	.	[1A	-nem	1d	-nem	1f	.
=148	=148	=148	=148	=148	=148	=148	=148
1AA	-nem	1A]	.	1c	ex-	1e	-nem
1BB-i	ex-	1F	.	[1B-	-au-	[1d	.
=149	=149	=149	=149	=149	=149	=149	=149
1GG	-au-	1G	.	1B-]	.	1d]	.
[1AA	-di-	1E	.	1A	.	1c	.
=150	=150	=150	=150	=150	=150	=150	=150
1AA]	.	1A	.	0c	-di-	1r	.
2.C	.	1G	ex-	.	.	1e	ex-
4BB	.	.	.	.	.	.	.
=151	=151	=151	=151	=151	=151	=151	=151
2AA	.	2A	-au-	2c	.	2f	-au-
2GG	.	2B-i	.	1d	.	2g	.
2D	.	2A	-di-	.	.	2f	-di-
2E	.	[2G	.	2B	.	[2e	.
=152	=152	=152	=152	=152	=152	=152	=152
2C	.	2G]	.	2c	.	2e]	.
2D	.	2F	.	2A	.	1d	.
1AA	-sti,	1E	.	[1A	-sti,	.	.
.	.	.	.	.	.	2c#i	.
=153	=153	=153	=153	=153	=153	=153	=153
1r	.	1D	-sti,	1A]	.	1d	-sti,
[1D	Mi-	1r	.	2r	.	1r	.
.	.	.	.	2A	Mi-	.	.
=154	=154	=154	=154	=154	=154	=154	=154
1D]	.	0F	Mi-	1d	.	1A	Mi-
1D	-hi	.	.	2d	-hi	2.A	-hi
.	.	.	.	[2A	.	.	.
.	.	.	.	.	.	4B	.
=155	=155	=155	=155	=155	=155	=155	=155
1AA	.	1E	-hi	2A]	.	1c	.
.	.	.	.	2A	.	.	.
1BB	.	1D	.	2F	.	2d	.
.	.	.	.	2G	.	[2d	.
=156	=156	=156	=156	=156	=156	=156	=156
1AA	.	1E	.	0A	.	2d]	.
.	.	.	.	.	.	2c#i	.
1r	.	1D	.	.	.	1d	.
=157	=157	=157	=157	=157	=157	=157	=157
0D	quo-	2r	.	2r	.	2r	.
.	.	2D	quo-	2G	quo-	2d	quo-
.	.	[1F	-que	1A	-que	[1d	-que
=158	=158	=158	=158	=158	=158	=158	=158
1BB-	-que	1F]	.	0B-	.	0d]	.
1GG	.	1G	.	.	.	.	.
=159	=159	=159	=159	=159	=159	=159	=159
1AA	spem	1E	spem	2.A	spem	1c	.
.	.	.	.	4B	.	.	.
2.AA	de-	1A	.	[1c	.	2r	.
.	.	.	.	.	.	[2e	spem
4BB	.	.	.	.	.	.	.
=160	=160	=160	=160	=160	=160	=160	=160
1C	-di-	1G	de-	1c]	.	1e]	.
[1FF	.	[1A	-di-	2r	.	[1f	de-
.	.	.	.	2c	de-	.	.
=161	=161	=161	=161	=161	=161	=161	=161
1FF]	.	1A]	.	1c	-di-	1f]	.
[1C	.	2.G	.	2.c	.	2.e	.
.	.	4F	.	4B	.	4d	.
=162	=162	=162	=162	=162	=162	=162	=162
2C]	.	2E	.	2A	.	2c	-di-
2BB	.	2D	.	2G	.	1d	.
1AA	.	1E	.	[1Al	-sti.	.	.
.	.	.	.	.	.	2c#i	.
=163	=163	=163	=163	=163	=163	=163	=163
0Dl	-rus.	0Dl	-sti.	0A]	.	0dl	-sti.
!!LO:PB:i:g=z
=164||	=164||	=164||	=164||	=164||	=164||	=164||	=164||
*>H	*>H	*>H	*>H	*>H	*>H	*>H	*>H
*clefF4	*	*clefGv2	*	*clefGv2	*	*clefG2	*
*k[]	*	*k[]	*	*k[]	*	*k[]	*
*M2/1	*	*M2/1	*	*M2/1	*	*M2/1	*
*met(C|)	*	*met(C|)	*	*met(C|)	*	*met(C|)	*
!!section: Inter oves
!!!OMD: Inter oves
0r	.	0r	.	2.A	In-	0a	In-
.	.	.	.	4B	.	.	.
.	.	.	.	2c	.	.	.
.	.	.	.	2d	.	.	.
=165	=165	=165	=165	=165	=165	=165	=165
!!LO:TX:X=-80:Z=36:t=Same music as
!!LO:TX:i:X=-80:Z=12:t=Liber scriptus
0r	.	0r	.	2B	-ter	1g	-ter
.	.	.	.	2c	.	.	.
.	.	.	.	4d	.	1f	.
.	.	.	.	8cL	.	.	.
.	.	.	.	8BJ	.	.	.
.	.	.	.	2A	.	.	.
=166	=166	=166	=166	=166	=166	=166	=166
0r	.	0r	.	2r	.	1g	o-
.	.	.	.	2G	o-	.	.
.	.	.	.	2.c	-ves	2.a	.
.	.	.	.	4B	.	4g	.
=167	=167	=167	=167	=167	=167	=167	=167
0r	.	0r	.	2A	.	2f	.
.	.	.	.	2G	.	2.e	.
.	.	.	.	2F	.	.	.
.	.	.	.	.	.	4d	.
.	.	.	.	2G	.	[2d	.
=168	=168	=168	=168	=168	=168	=168	=168
0r	.	0r	.	1E	.	2d]	.
.	.	.	.	.	.	2c#i	.
.	.	.	.	2r	.	1d	-ves
.	.	.	.	[2D	lo-	.	.
=169	=169	=169	=169	=169	=169	=169	=169
0r	.	0r	.	2D]	.	1r	.
.	.	.	.	2G	.	.	.
.	.	.	.	2F	.	1d	lo-
.	.	.	.	2G	.	.	.
=170	=170	=170	=170	=170	=170	=170	=170
0r	.	0r	.	2E	-cum	1c	-cum
.	.	.	.	2.A	pre-	.	.
.	.	.	.	.	.	2.A	pre-
.	.	.	.	4G	.	.	.
.	.	.	.	2F	.	.	.
.	.	.	.	.	.	4B	.
=171	=171	=171	=171	=171	=171	=171	=171
0r	.	0r	.	2E	-sta,	2c	.
.	.	.	.	4D	.	1d	.
.	.	.	.	2F	.	.	.
.	.	.	.	4G	.	.	.
.	.	.	.	2E	.	2c#i	.
=172	=172	=172	=172	=172	=172	=172	=172
0r	.	0r	.	2r	.	1d	-sta,
.	.	.	.	2D	Et	.	.
.	.	.	.	2F	ab	1r	.
.	.	.	.	2G	he-	.	.
=173	=173	=173	=173	=173	=173	=173	=173
0r	.	0r	.	2D	-dis	1f	Et
.	.	.	.	2d	.	.	.
.	.	.	.	4c	.	1e	ab
.	.	.	.	2A	.	.	.
.	.	.	.	4c	.	.	.
=174	=174	=174	=174	=174	=174	=174	=174
0r	.	0r	.	4B	.	1d	.
.	.	.	.	2G	.	.	.
.	.	.	.	4B	.	.	.
.	.	.	.	1A	.	1c	he-
=175	=175	=175	=175	=175	=175	=175	=175
0r	.	0r	.	2F	.	1A	-dis
.	.	.	.	2D	.	.	.
.	.	.	.	1E	.	2r	.
.	.	.	.	.	.	2c	me-
=176	=176	=176	=176	=176	=176	=176	=176
0r	.	0r	.	2r	.	2.d	-se-
.	.	.	.	2D	me	.	.
.	.	.	.	.	.	4e	.
.	.	.	.	2.D	se-	1f	-que-
.	.	.	.	8CL	.	.	.
.	.	.	.	8BBJ	.	.	.
=177	=177	=177	=177	=177	=177	=177	=177
0r	.	0r	.	2C	.	2e	.
.	.	.	.	2D	.	1d	.
.	.	.	.	1E	-que-	.	.
.	.	.	.	.	.	2c#i	.
=178	=178	=178	=178	=178	=178	=178	=178
0r	.	0r	.	0D	-stra,	1d	-stra,
.	.	.	.	.	.	1r	.
=179	=179	=179	=179	=179	=179	=179	=179
0r	.	0r	.	2r	.	1a	Sta-
.	.	.	.	2.d	Sta-	.	.
.	.	.	.	.	.	1f	-tu-
.	.	.	.	8cL	.	.	.
.	.	.	.	8BJ	.	.	.
.	.	.	.	2A	-tu-	.	.
=180	=180	=180	=180	=180	=180	=180	=180
0r	.	0r	.	2G	-ens	1g	-ens
.	.	.	.	2c	in	.	.
.	.	.	.	2B	par-	1d	.
.	.	.	.	2G	-te	.	.
=181	=181	=181	=181	=181	=181	=181	=181
0r	.	0r	.	2.A	dex-	2r	.
.	.	.	.	.	.	2c	in
.	.	.	.	4G	.	.	.
.	.	.	.	4F	.	2d	par-
.	.	.	.	4E	.	.	.
.	.	.	.	2D	.	2f	-te
=182	=182	=182	=182	=182	=182	=182	=182
0r	.	0r	.	2C	.	2e	dex-
.	.	.	.	2E	.	2g	.
.	.	.	.	2D	.	2f	.
.	.	.	.	2G	.	[2e	.
=183	=183	=183	=183	=183	=183	=183	=183
0r	.	0r	.	2A	.	2e]	.
.	.	.	.	2F	.	1d	.
.	.	.	.	1E	.	.	.
.	.	.	.	.	.	2c#i	.
=184	=184	=184	=184	=184	=184	=184	=184
0r	.	0r	.	0Dl	-tra.	0dl	-tra.
!!LO:PB:i:g=z
=185||	=185||	=185||	=185||	=185||	=185||	=185||	=185||
*>I	*>I	*>I	*>I	*>I	*>I	*>I	*>I
*clefF4	*	*clefGv2	*	*clefGv2	*	*clefG2	*
*k[]	*	*k[]	*	*k[]	*	*k[]	*
*M2/1	*	*M2/1	*	*M2/1	*	*M2/1	*
*met(C|)	*	*met(C|)	*	*met(C|)	*	*met(C|)	*
!!section: Oro supplex
!!!OMD: Oro supplex
0D	O-	1A	O-	2.d	O-	0a	O-
.	.	.	.	4e	.	.	.
.	.	[1d	-ro	1f	.	.	.
=186	=186	=186	=186	=186	=186	=186	=186
!!LO:TX:Z=36:t=Same music as
!!LO:TX:i:Z=12:t=Juste judex
1BB-	-ro	1d]	.	1f	-ro	1b-	-ro
1C	sup-	1c	sup-	1e	sup-	1g	sup-
=187	=187	=187	=187	=187	=187	=187	=187
0D	-plex	0A	-plex	0d	-plex	0f	-plex
=188	=188	=188	=188	=188	=188	=188	=188
1G	et	1B	et	2d	et	1g	et
.	.	.	.	2e	.	.	.
1F	ac-	[1c	ac-	1f	ac-	1a	ac-
=189	=189	=189	=189	=189	=189	=189	=189
1C	.	1c]	.	1e	-cli-	1g	-cli-
2D	-cli-	1A	-cli-	2d	.	2f	.
2AA	.	.	.	2c	.	[2e	.
=190	=190	=190	=190	=190	=190	=190	=190
1BB-i	.	2F	.	2d	.	4e]	.
.	.	.	.	.	.	4d	.
.	.	2D	.	2G	.	1d	.
1AA	-nis,	1E	.	1A	-nis,	.	.
.	.	.	.	.	.	2c#i	.
=191	=191	=191	=191	=191	=191	=191	=191
1r	.	1D	-nis,	2r	.	0d	-nis,
.	.	.	.	2A	Cor	.	.
1D	Cor	2r	.	2A	con-	.	.
.	.	2F	Cor	2B	.	.	.
=192	=192	=192	=192	=192	=192	=192	=192
1C	.	1G	.	[0c	.	1r	.
1FF	con-	1A	con-	.	.	1f	Cor
=193	=193	=193	=193	=193	=193	=193	=193
1C	-tri-	1G	-tri-	1c]	.	1e	.
1D	.	1F	.	1A	-tri-	1d	con-
=194	=194	=194	=194	=194	=194	=194	=194
1GG	-tum	1G	-tum	1B	.	1d	-tri-
[1AA	.	1E	.	2.A	-tum	1c	-tum
.	.	.	.	8GL	.	.	.
.	.	.	.	8FJ	.	.	.
=195	=195	=195	=195	=195	=195	=195	=195
1AA]	.	2.A	qua-	1E	.	1r	.
.	.	8GL	.	.	.	.	.
.	.	8FJ	.	.	.	.	.
[1AA	qua-	2E	.	2r	.	1A	qua-
.	.	2F	.	2A	qua-	.	.
=196	=196	=196	=196	=196	=196	=196	=196
1AA]	.	1E	-si	1A	.	1c	.
[1D	-si	2D	ci-	1A	-si-	2.d	-si-
.	.	[2F	.	.	.	.	.
.	.	.	.	.	.	4e	.
=197	=197	=197	=197	=197	=197	=197	=197
1D]	.	4F]	.	2A	-ci-	1f	.
.	.	4E	.	.	.	.	.
.	.	2F	.	2B	.	.	.
2C	ci-	2G	.	1c	.	2e	-ci-
2FF	.	2A	.	.	.	[2f	.
=198	=198	=198	=198	=198	=198	=198	=198
1BB-i	-nis:	1D	.	2F	.	4f]	.
.	.	.	.	.	.	4e	.
.	.	.	.	2G	.	1d	.
1AA	.	1E	.	1A	-nis:	.	.
.	.	.	.	.	.	2c#i	.
=199	=199	=199	=199	=199	=199	=199	=199
2r	.	1D	-nis:	2r	.	1d	-nis:
2D	Ge-	.	.	2d	Ge-	.	.
1D	-re	2r	.	[1f	-re	1r	.
.	.	2A	Ge-	.	.	.	.
=200	=200	=200	=200	=200	=200	=200	=200
2.D	cu-	1d	-re	1f]	.	0a	Ge-
4E	.	.	.	.	.	.	.
1F	.	1c	.	[1f	cu-	.	.
=201	=201	=201	=201	=201	=201	=201	=201
1BB-	-ram	1d	.	0f]	.	1b-i	.
1F	.	[1c	cu-	.	.	1a	.
=202	=202	=202	=202	=202	=202	=202	=202
1C	.	1c]	.	1e	-ram	1g	-re
1D	.	1A	.	[1d	me-	1f	cu-
=203	=203	=203	=203	=203	=203	=203	=203
0GG	.	2.B	-ram	1d]	.	1g	-ram
.	.	4A	.	.	.	.	.
.	.	2.G	.	1B	-i	1d	me-
.	.	4F	.	.	.	.	.
=204	=204	=204	=204	=204	=204	=204	=204
1AA	me-	1E	me-	1A	fi-	1c	-i
1D	.	1F	.	2A	.	1d	fi-
.	.	.	.	2B	.	.	.
=205	=205	=205	=205	=205	=205	=205	=205
1C	-fi-	0G	-i	1c	.	0e	.
1E	.	.	.	2B	.	.	.
.	.	.	.	2c	.	.	.
=206	=206	=206	=206	=206	=206	=206	=206
1D	.	1A	fi-	1d	.	1f	.
1E	.	[1G	.	1B	.	1g	.
=207	=207	=207	=207	=207	=207	=207	=207
1C	.	1G]	.	1c	.	1e	.
1D	.	1F	.	1B	.	1d	.
=208	=208	=208	=208	=208	=208	=208	=208
0AA	.	0E	.	[0Al	-nis.	2c#i	.
.	.	.	.	.	.	1c#i	.
.	.	.	.	.	.	4B	.
.	.	.	.	.	.	4c#i	.
=209	=209	=209	=209	=209	=209	=209	=209
0Dl	-nis.	0Dl	-nis.	0A]	.	0dl	-nis.
!!LO:PB:i:g=z
=210||	=210||	=210||	=210||	=210||	=210||	=210||	=210||
*>J	*>J	*>J	*>J	*>J	*>J	*>J	*>J
*clefF4	*	*clefGv2	*	*clefGv2	*	*clefG2	*
*k[]	*	*k[]	*	*k[]	*	*k[]	*
*M2/1	*	*M2/1	*	*M2/1	*	*M2/1	*
*met(C|)	*	*met(C|)	*	*met(C|)	*	*met(C|)	*
!!section: Judicandus
!!!OMD: Judicandus
0D	Ju-	1A	Ju-	0d	Ju-	0f	Ju-
.	.	2A	-di-	.	.	.	.
.	.	2B	.	.	.	.	.
=211	=211	=211	=211	=211	=211	=211	=211
1.C	-di-	1c	.	1.G	-di-	0e	-di-
.	.	[1c	-can-	.	.	.	.
2AA	.	.	.	2A	.	.	.
=212	=212	=212	=212	=212	=212	=212	=212
1AA	-can-	1c]	.	2.A	-can-	1e	-can-
.	.	.	.	4G	.	.	.
2D	.	2B	.	2F	.	2d	.
2C	.	[2A	.	2E	.	2e	.
=213	=213	=213	=213	=213	=213	=213	=213
1BB-	.	2A]	.	1D	.	2f	.
.	.	2G	.	.	.	2g	.
[1AA	-dus	1A	-dus	1E	-dus	1c	-dus
=214	=214	=214	=214	=214	=214	=214	=214
1AA]	.	1r	.	2.A	ho-	2r	.
.	.	.	.	.	.	2e	ho-
.	.	.	.	4B	.	.	.
1AA	ho-	1A	ho-	[1c	-mo	[1e	-mo
=215	=215	=215	=215	=215	=215	=215	=215
1C	-mo	2G	-mo	1c]	.	1e]	.
.	.	1G	re-	.	.	.	.
1D	re	.	.	1B	re-	2f	re-
.	.	2F	.	.	.	2d	.
=216	=216	=216	=216	=216	=216	=216	=216
1C	us:	1G	.	0c	-us:	0e	-us:
1AA	.	[1A	.	.	.	.	.
=217	=217	=217	=217	=217	=217	=217	=217
1D	.	1A]	.	1d	.	1f	.
1AA	.	1A	.	1c	.	1e	.
=218	=218	=218	=218	=218	=218	=218	=218
1BB	.	0D	-us:	1F	.	2r	.
.	.	.	.	.	.	2.d	Hu-
1GG	.	.	.	1G	.	.	.
.	.	.	.	.	.	4c	.
.	.	.	.	.	.	2B	-ic
=219	=219	=219	=219	=219	=219	=219	=219
1D	Hu-	1F	Hu-	2A	.	2A	er-
.	.	.	.	2A	Hu-	2d	.
1AA	-ic	1E	-ic	1A	-ic	1c	-go,
=220	=220	=220	=220	=220	=220	=220	=220
1D	er-	1F	er-	1A	er-	0r	.
1GG	.	1D	.	1B-i	.	.	.
=221	=221	=221	=221	=221	=221	=221	=221
2C	.	1E	.	2G	.	0r	.
2AA	.	.	.	2A	.	.	.
2BB-	.	2D	.	2F	.	.	.
2GG	.	[2D	.	2G	.	.	.
=222	=222	=222	=222	=222	=222	=222	=222
1AA	-go	2D]	.	1E	-go	1r	.
.	.	2C#i	.	.	.	.	.
1r	.	1D	-go	2r	.	2.f	par-
.	.	.	.	2D	par-	.	.
.	.	.	.	.	.	4g	.
=223	=223	=223	=223	=223	=223	=223	=223
0D	par-	1r	.	2.F	.	0a	.
.	.	.	.	4G	.	.	.
.	.	1F	par-	2A	.	.	.
.	.	.	.	2d	.	.	.
=224	=224	=224	=224	=224	=224	=224	=224
1E	.	1G	.	2B	.	1g	.
.	.	.	.	2c	.	.	.
1D	.	1A	.	1d	.	1f	.
=225	=225	=225	=225	=225	=225	=225	=225
1F	.	1A	.	1.c	.	1f	.
2C	.	2G	.	.	.	2e	.
2D	.	2F	.	2A	.	[2d	.
=226	=226	=226	=226	=226	=226	=226	=226
1AA	-ce	1E	-ce	1A	-ce	2d]	.
.	.	.	.	.	.	2c#i	.
2r	.	[1D	.	2r	.	1d	-ce
[2D	De-	.	.	2A	De-	.	.
=227	=227	=227	=227	=227	=227	=227	=227
2D]	.	2D]	.	2F	.	2r	.
2BB-	.	2r	.	2G	.	2d	De-
1AA	.	1E	De-	[1A	.	1c	.
=228	=228	=228	=228	=228	=228	=228	=228
1D	.	1F	.	1A]	.	2.d	.
.	.	.	.	.	.	8cL	.
.	.	.	.	.	.	8BJ	.
1AA	.	1E	.	1A	.	1c	.
=229	=229	=229	=229	=229	=229	=229	=229
2D	.	2F	.	2B	.	2d	.
2C	.	2G	.	2c	.	2.e	.
1BB-i	.	1D	.	2F	.	.	.
.	.	.	.	.	.	4d	.
.	.	.	.	2G	.	[2d	.
=230	=230	=230	=230	=230	=230	=230	=230
1AA	.	1E	.	0Al	-us.	2d]	.
.	.	.	.	.	.	2c#i	.
1Dl	-us.	1Dl	-us.	.	.	1dl	-us.
!!LO:PB:i:g=z
=231||	=231||	=231||	=231||	=231||	=231||	=231||	=231||
*>K	*>K	*>K	*>K	*>K	*>K	*>K	*>K
*clefF4	*	*clefGv2	*	*clefGv2	*	*clefG2	*
*k[]	*	*k[]	*	*k[]	*	*k[]	*
*M2/1	*	*M2/1	*	*M2/1	*	*M2/1	*
*met(C|)	*	*met(C|)	*	*met(C|)	*	*met(C|)	*
!!section: Pie Jesu
!!!OMD: Pie Jesu
0AA	Pi-	0c	Pi-	0e	Pi-	0a	Pi-
=232	=232	=232	=232	=232	=232	=232	=232
0C	-e	0c	-e	0e	-e	0g	-e
=233	=233	=233	=233	=233	=233	=233	=233
0D	Je-	0A	Je-	0d	Je-	0f	Je-
=234	=234	=234	=234	=234	=234	=234	=234
0AA	-su	0A	-su	[0cl;	-su	[0el;	-su
=235	=235	=235	=235	=235	=235	=235	=235
0Cl;	.	0Gl;	.	0c]	.	0e]	.
=236	=236	=236	=236	=236	=236	=236	=236
1.C	Do-	0c	Do-	0e	Do-	0g	Do-
2D	.	.	.	.	.	.	.
=237	=237	=237	=237	=237	=237	=237	=237
0E	-mi-	0B	-mi-	0e	-mi-	0g	-mi-
=238	=238	=238	=238	=238	=238	=238	=238
0F	-ne,	[0Al;	-ne,	0c	-ne,	[0al;	-ne,
=239	=239	=239	=239	=239	=239	=239	=239
0Dl;	.	0A]	.	0dl;	.	0a]	.
=240	=240	=240	=240	=240	=240	=240	=240
[0D	do-	0A	do-	0d	do-	[0f	do-
=241	=241	=241	=241	=241	=241	=241	=241
0D]	.	0F	.	1A	.	0f]	.
.	.	.	.	1B	.	.	.
=242	=242	=242	=242	=242	=242	=242	=242
0C	.	0G	.	[0c	.	[0e	.
=243	=243	=243	=243	=243	=243	=243	=243
0AA	.	[0Al;	-na	0c]	.	0e]	.
=244	=244	=244	=244	=244	=244	=244	=244
0Dl;	-na	0A]	.	0dl;	-na	0fl;	-na
=245	=245	=245	=245	=245	=245	=245	=245
0GG	e-	0G	e-	0d	e-	0g	e-
=246	=246	=246	=246	=246	=246	=246	=246
0GG	.	0G	.	0B	.	0d	.
=247	=247	=247	=247	=247	=247	=247	=247
0AA	.	0E	.	[0Al;	.	0c#i	.
=248	=248	=248	=248	=248	=248	=248	=248
0Dl;	-is	0Fl;	-is	0A]	.	0dl;	-is
=249	=249	=249	=249	=249	=249	=249	=249
0D	re-	0A	re-	0d	-re-	0f	re-
=250	=250	=250	=250	=250	=250	=250	=250
0AA	-qui-	0A	-qui-	0c	-qui-	0e	-qui-
=251	=251	=251	=251	=251	=251	=251	=251
0Dl;	-em.	0Fl;	-em.	0Al;	-em.	0dl;	-em.
=252	=252	=252	=252	=252	=252	=252	=252
0D	A-	0F	A-	0A	A-	0d	A-
=253	=253	=253	=253	=253	=253	=253	=253
0C	.	0E	.	0A	.	0e	.
=254	=254	=254	=254	=254	=254	=254	=254
0BB-	.	0F	.	[0B-	.	[0d	.
=255	=255	=255	=255	=255	=255	=255	=255
0GG	.	0G	.	0B-]	.	0d]	.
=256	=256	=256	=256	=256	=256	=256	=256
0AAl;	-men,	0El;	-men,	0Al;	-men,	0cl;	-men,
=257	=257	=257	=257	=257	=257	=257	=257
0BB-i	a-	0D	a-	1F	a-	1.d	a-
.	.	.	.	1G	.	.	.
.	.	.	.	.	.	4c#i	.
.	.	.	.	.	.	4B	.
=258	=258	=258	=258	=258	=258	=258	=258
0AAl;	.	0El;	.	0A;	.	0c#il;	.
=259	=259	=259	=259	=259	=259	=259	=259
0Dl	-men.	0Dl	-men.	0Al	-men.	0dl	-men.
==	==	==	==	==	==	==	==
*-	*-	*-	*-	*-	*-	*-	*-
!!!RDF**kern: l=long note in original notation
!!!RDF**kern: i=editorial accidental
!!!ENC:	Chris Gage 02-12-2014, 06-18-2014 (text)
!!!END:	2014/08/07/
!!!EED:	Jesse Rodin
!!!EEV:	2014/08/15/
!!!ONB:	Translated from MusicXML and edited on 2014/08/15/ by Craig Sapp
!!muse2ps: T^@{OPR}^u^@{ONM}{. }@{OTL}^C^@{COM}^i2I150v95,95,95,130l2650z16Q1c200
